barni/images/magnit-m.svg

<svg width="199" height="38" viewBox="0 0 199 38" fill="none" xmlns="http://www.w3.org/2000/svg">
<g clip-path="url(#clip0_51_426)">
<path d="M106.249 31.6235V6.37631H121.709V12.2355H112.691V31.6235H106.249Z" fill="#E6000E"/>
<path d="M106.249 31.6235V6.37631H121.709V12.2355H112.691V31.6235H106.249Z" fill="white"/>
<path d="M141.152 31.6235V21.7355H131.575V31.6235H125.133V6.37631H131.575V15.7968H141.152V6.37631H147.595V31.6235H141.152Z" fill="#E6000E"/>
<path d="M141.152 31.6235V21.7355H131.575V31.6235H125.133V6.37631H131.575V15.7968H141.152V6.37631H147.595V31.6235H141.152Z" fill="white"/>
<path d="M184.996 31.6235V12.2355H177.464V6.37631H199V12.2355H191.439V31.6235H184.996Z" fill="#E6000E"/>
<path d="M184.996 31.6235V12.2355H177.464V6.37631H199V12.2355H191.439V31.6235H184.996Z" fill="white"/>
<path d="M167.984 31.6235V17.2292L157.722 31.6235H152.33V6.37631H158.783V20.6114L168.861 6.37631H174.426V31.6235H167.984Z" fill="#E6000E"/>
<path d="M167.984 31.6235V17.2292L157.722 31.6235H152.33V6.37631H158.783V20.6114L168.861 6.37631H174.426V31.6235H167.984Z" fill="white"/>
<path d="M69.2148 31.6235V16.6125L62.7819 24.5407L56.3491 16.6125V31.6235H49.9066V6.37631H56.2623L62.7819 15.0606L69.3015 6.37631H75.6573V31.6235H69.2148Z" fill="#E6000E"/>
<path d="M69.2148 31.6235V16.6125L62.7819 24.5407L56.3491 16.6125V31.6235H49.9066V6.37631H56.2623L62.7819 15.0606L69.3015 6.37631H75.6573V31.6235H69.2148Z" fill="white"/>
<path d="M87.8964 22.7402H93.8854L90.8862 14.7821L87.8964 22.7402ZM97.2416 31.6235L95.9013 28.0821H85.871L84.5401 31.6235H78.0494L88.0024 6.37631H93.9623L103.868 31.6235H97.2416Z" fill="#E6000E"/>
<path d="M87.8964 22.7402H93.8854L90.8862 14.7821L87.8964 22.7402ZM97.2416 31.6235L95.9013 28.0821H85.871L84.5401 31.6235H78.0494L88.0024 6.37631H93.9623L103.868 31.6235H97.2416Z" fill="white"/>
<path d="M0 11.5025C0 8.43781 1.15722 5.55224 3.26913 3.37314C5.38105 1.19403 8.17766 0 11.1479 0H36.8959V5.85075H11.1479C9.69167 5.85075 8.32231 6.43781 7.28082 7.51244C6.23933 8.58706 5.67036 10.01 5.67036 11.5125L5.63178 21.3333C5.37141 23.9403 3.46201 26.0398 1.00292 26.4279L0 26.5771V11.5025Z" fill="#E6000E"/>
<path d="M0 11.5025C0 8.43781 1.15722 5.55224 3.26913 3.37314C5.38105 1.19403 8.17766 0 11.1479 0H36.8959V5.85075H11.1479C9.69167 5.85075 8.32231 6.43781 7.28082 7.51244C6.23933 8.58706 5.67036 10.01 5.67036 11.5125L5.63178 21.3333C5.37141 23.9403 3.46201 26.0398 1.00292 26.4279L0 26.5771V11.5025Z" fill="white"/>
<path d="M0 38.0001V32.1493H25.7481C27.2042 32.1493 28.5832 31.5524 29.6151 30.4877C30.6565 29.413 31.2255 28.0001 31.2255 26.4976L31.2352 17.1842C31.2352 14.4081 33.2411 12.0001 35.893 11.5822L36.8959 11.423V26.4976C36.8959 29.5623 35.729 32.4478 33.6267 34.6269C31.5148 36.806 28.7183 38.0001 25.7481 38.0001H0Z" fill="#E6000E"/>
<path d="M0 38.0001V32.1493H25.7481C27.2042 32.1493 28.5832 31.5524 29.6151 30.4877C30.6565 29.413 31.2255 28.0001 31.2255 26.4976L31.2352 17.1842C31.2352 14.4081 33.2411 12.0001 35.893 11.5822L36.8959 11.423V26.4976C36.8959 29.5623 35.729 32.4478 33.6267 34.6269C31.5148 36.806 28.7183 38.0001 25.7481 38.0001H0Z" fill="white"/>
<path d="M21.8042 26.5971V19.0448L18.4482 23.1742L15.0923 19.0448V26.5971H10.6467V11.7215H14.8608L18.4482 16.5075L22.0452 11.7215H26.2497V26.5971H21.8042Z" fill="#E6000E"/>
<path d="M21.8042 26.5971V19.0448L18.4482 23.1742L15.0923 19.0448V26.5971H10.6467V11.7215H14.8608L18.4482 16.5075L22.0452 11.7215H26.2497V26.5971H21.8042Z" fill="white"/>
</g>
<defs>
<clipPath id="clip0_51_426">
<rect width="199" height="38" fill="white"/>
</clipPath>
</defs>
</svg>

<svg width="199" height="38" fill="none" xmlns="http://www.w3.org/2000/svg"><g clip-path="url(#a)"><path d="M106.249 31.623V6.377h15.46v5.86h-9.018v19.387h-6.442Z" fill="#E6000E"/><path d="M106.249 31.623V6.377h15.46v5.86h-9.018v19.387h-6.442Z" fill="#fff"/><path d="M141.152 31.623v-9.888h-9.577v9.889h-6.442V6.375h6.442v9.42h9.577v-9.42h6.443v25.247h-6.443Z" fill="#E6000E"/><path d="M141.152 31.623v-9.888h-9.577v9.889h-6.442V6.375h6.442v9.42h9.577v-9.42h6.443v25.247h-6.443Z" fill="#fff"/><path d="M184.996 31.623V12.236h-7.532v-5.86H199v5.86h-7.561v19.387h-6.443Z" fill="#E6000E"/><path d="M184.996 31.623V12.236h-7.532v-5.86H199v5.86h-7.561v19.387h-6.443Z" fill="#fff"/><path d="M167.984 31.623V17.23l-10.262 14.395h-5.392V6.375h6.453v14.235l10.078-14.235h5.565v25.247h-6.442Z" fill="#E6000E"/><path d="M167.984 31.623V17.23l-10.262 14.395h-5.392V6.375h6.453v14.235l10.078-14.235h5.565v25.247h-6.442Z" fill="#fff"/><path d="M69.215 31.623v-15.01l-6.433 7.928-6.433-7.928v15.01h-6.442V6.377h6.355l6.52 8.685 6.52-8.685h6.355v25.247h-6.442Z" fill="#E6000E"/><path d="M69.215 31.623v-15.01l-6.433 7.928-6.433-7.928v15.01h-6.442V6.377h6.355l6.52 8.685 6.52-8.685h6.355v25.247h-6.442Z" fill="#fff"/><path d="M87.896 22.74h5.99l-3-7.958-2.99 7.958Zm9.346 8.884-1.34-3.542H85.87l-1.33 3.541h-6.492l9.953-25.247h5.96l9.906 25.247h-6.626Z" fill="#E6000E"/><path d="M87.896 22.74h5.99l-3-7.958-2.99 7.958Zm9.346 8.884-1.34-3.542H85.87l-1.33 3.541h-6.492l9.953-25.247h5.96l9.906 25.247h-6.626Z" fill="#fff"/><path d="M0 11.502c0-3.064 1.157-5.95 3.27-8.129C5.38 1.194 8.177 0 11.147 0h25.748v5.85H11.148c-1.456 0-2.826.588-3.867 1.662a5.716 5.716 0 0 0-1.61 4l-.04 9.821c-.26 2.607-2.169 4.707-4.628 5.095L0 26.578V11.502Z" fill="#E6000E"/><path d="M0 11.502c0-3.064 1.157-5.95 3.27-8.129C5.38 1.194 8.177 0 11.147 0h25.748v5.85H11.148c-1.456 0-2.826.588-3.867 1.662a5.716 5.716 0 0 0-1.61 4l-.04 9.821c-.26 2.607-2.169 4.707-4.628 5.095L0 26.578V11.502Z" fill="#fff"/><path d="M0 38v-5.85h25.748c1.456 0 2.835-.598 3.867-1.662a5.693 5.693 0 0 0 1.61-3.99l.01-9.314c0-2.776 2.006-5.184 4.658-5.602l1.003-.159v15.075c0 3.064-1.167 5.95-3.27 8.129C31.516 36.806 28.719 38 25.749 38H0Z" fill="#E6000E"/><path d="M0 38v-5.85h25.748c1.456 0 2.835-.598 3.867-1.662a5.693 5.693 0 0 0 1.61-3.99l.01-9.314c0-2.776 2.006-5.184 4.658-5.602l1.003-.159v15.075c0 3.064-1.167 5.95-3.27 8.129C31.516 36.806 28.719 38 25.749 38H0Z" fill="#fff"/><path d="M21.804 26.597v-7.552l-3.356 4.13-3.356-4.13v7.552h-4.445V11.721h4.214l3.587 4.787 3.597-4.786h4.205v14.875h-4.446Z" fill="#E6000E"/><path d="M21.804 26.597v-7.552l-3.356 4.13-3.356-4.13v7.552h-4.445V11.721h4.214l3.587 4.787 3.597-4.786h4.205v14.875h-4.446Z" fill="#fff"/></g><defs><clipPath id="a"><path fill="#fff" d="M0 0h199v38H0z"/></clipPath></defs></svg>
